X: 2
T: Knights of Saint Patrick
I: RJ J-58 D jig Set 44
M: 6/8
R: jig
K: D
"(A)"A |\
"D"dcd faf | dcd AFD | "G"GBG FAF | "A"EFG ABc ||\
"D"d3 faf | dcd AFD | "G"GBG "D"FAF | "A"EDE D2 :|
f |\
"D"aga fdf | aba agf | "A"g3 gec | Ace gfe ||\
"D"aga fdf | aba afg | afd "Em"bge | "A"edc "D"d2 |]
f |\
"D"aga fdf | aba agf | "A"g3 gec | Ace gfe ||\
"D"d3 "Em"ede | "F#m"fef "G"gfg | "D"afd "Em"bge | "D"dAF D2 |]


